src/assets/duotone/Ticket2.svg

<svg width="24" height="24" viewBox="0 0 24 24"  xmlns="http://www.w3.org/2000/svg">
<path opacity="0.4" d="M20.8401 13.17C21.2301 13.17 21.5401 12.85 21.5401 12.45V11.57C21.5401 7.64001 20.3401 6.45001 16.4201 6.45001H10.1201V8.88001C10.5101 8.88001 10.8301 9.20001 10.8301 9.59001V12.27C10.8301 12.66 10.5101 12.98 10.1201 12.98V15.49C10.5101 15.49 10.8301 15.81 10.8301 16.2V18.88C10.8301 19.27 10.5101 19.59 10.1201 19.59V22H16.4201C20.3401 22 21.5401 20.8 21.5401 16.88C21.5401 16.49 21.2301 16.17 20.8401 16.17C20.0001 16.17 19.3301 15.5 19.3301 14.67C19.3301 13.84 20.0001 13.17 20.8401 13.17Z" />
<path d="M7.57022 6.46C7.58022 6.46 7.58022 6.46 7.57022 6.46H7.58021H16.4102C16.4802 6.46 16.5502 6.46 16.6102 6.46C16.6002 6.44 16.6002 6.43 16.6002 6.41C16.5702 6.06 16.7102 5.72 16.9702 5.46C17.1002 5.33 17.1802 5.15 17.1802 4.96C17.1802 4.77 17.1002 4.59 16.9702 4.46L16.4202 3.9C15.4402 2.91 14.3602 2 13.1002 2C11.8502 2 10.7602 2.91 9.78021 3.9L7.22021 6.46C7.33021 6.46 7.45022 6.46 7.57022 6.46Z" />
<path d="M9.40996 9.59002V12.27C9.40996 12.66 9.72996 12.98 10.12 12.98V15.49C9.72996 15.49 9.40996 15.81 9.40996 16.2V18.88C9.40996 19.27 9.72996 19.59 10.12 19.59V22H7.57996C3.65996 22 2.45996 20.8 2.45996 16.88V16.45C2.45996 16.05 2.76996 15.74 3.15996 15.74C3.99996 15.74 4.66996 15.06 4.66996 14.23C4.66996 13.4 3.99996 12.72 3.15996 12.72C2.76996 12.72 2.45996 12.41 2.45996 12.01V11.58C2.45996 7.65002 3.65996 6.46002 7.57996 6.46002H10.11V8.89002C9.72996 8.89002 9.40996 9.21002 9.40996 9.59002Z" />
</svg>

<?xml version="1.0" encoding="UTF-8"?>
<svg width="24" height="24" viewBox="0 0 24 24" xmlns="http://www.w3.org/2000/svg">
 <path d="m20.84 13.17c0.39 0 0.7-0.32 0.7-0.72v-0.88c0-3.93-1.2-5.12-5.12-5.12h-6.3v2.43c0.39 0 0.71 0.32 0.71 0.71v2.68c0 0.39-0.32 0.71-0.71 0.71v2.51c0.39 0 0.71 0.32 0.71 0.71v2.68c0 0.39-0.32 0.71-0.71 0.71v2.41h6.3c3.92 0 5.12-1.2 5.12-5.12 0-0.39-0.31-0.71-0.7-0.71-0.84 0-1.51-0.67-1.51-1.5s0.67-1.5 1.51-1.5z" opacity=".4"/>
 <path d="m7.5702 6.46c0.01 0 0.01 0 0 0h8.84 0.2c-0.01-0.02-0.01-0.03-0.01-0.05-0.03-0.35 0.11-0.69 0.37-0.95 0.13-0.13 0.21-0.31 0.21-0.5s-0.08-0.37-0.21-0.5l-0.55-0.56c-0.98-0.99-2.06-1.9-3.32-1.9-1.25 0-2.34 0.91-3.32 1.9l-2.56 2.56h0.35001z"/>
 <path d="m9.41 9.59v2.68c0 0.39 0.32 0.71 0.71004 0.71v2.51c-0.39004 0-0.71004 0.32-0.71004 0.71v2.68c0 0.39 0.32 0.71 0.71004 0.71v2.41h-2.54c-3.92 0-5.12-1.2-5.12-5.12v-0.43c0-0.4 0.31-0.71 0.7-0.71 0.84 0 1.51-0.68 1.51-1.51s-0.67-1.51-1.51-1.51c-0.39 0-0.7-0.31-0.7-0.71v-0.43c0-3.93 1.2-5.12 5.12-5.12h2.53v2.43c-0.38004 0-0.70004 0.32-0.70004 0.7z"/>
</svg>
